symbols/web/sports_kabaddi/materialsymbolsoutlined/sports_kabaddi_wght600grad200_40px.svg

<svg xmlns="http://www.w3.org/2000/svg" height="40" width="40"><path d="M27.125 7.333q-1.458 0-2.479-1.041-1.021-1.042-1.021-2.5 0-1.459 1.021-2.5Q25.667.25 27.167.25q1.458 0 2.5 1.021 1.041 1.021 1.041 2.521 0 1.458-1.041 2.5-1.042 1.041-2.542 1.041Zm-8.25 7.167q-1.458 0-2.479-1.042-1.021-1.041-1.021-2.541 0-1.459 1.021-2.5 1.021-1.042 2.479-1.042 1.5 0 2.521 1.042 1.021 1.041 1.021 2.5 0 1.5-1.021 2.541-1.021 1.042-2.521 1.042ZM2.542 38.292l-2.834-2.459 5.875-6.416-1.75-5.042q-.375-1.042-.125-2.063.25-1.02.959-1.729L10 15q.5-.5 1.146-.771.646-.271 1.354-.271.667 0 1.333.271Q14.5 14.5 15 15l3.417 3.333q1.583 1.459 2.791 1.875 1.209.417 2.792.417v3.75q-2.208 0-4.25-.729t-3.708-2.396l-1.084-1.125-3.708 3.792 4.208 3.75v10.458h-3.75v-8.708l-2.333-2.084v3.417Zm22.083-.167V26.458l3.625-3.583-1.125-6.583Q26 17.792 25 18.479q-1 .688-2.083.979-1.167-.25-2.125-.75-.959-.5-1.709-1.375Q21 16.917 22.479 16q1.479-.917 2.813-3.042l1.666-2.75q.834-1.25 2.209-1.583 1.375-.333 2.666.25l8.459 3.625v8.25h-3.709V15l-2.833-1.208 4.417 24.333h-3.792l-2.917-12.583-3.125 3.208v9.375Z"/></svg>

<svg xmlns="http://www.w3.org/2000/svg" height="40" width="40"><path d="M27.125 7.333Q25.667 7.333 24.646 6.292Q23.625 5.25 23.625 3.792Q23.625 2.333 24.646 1.292Q25.667 0.25 27.167 0.25Q28.625 0.25 29.667 1.271Q30.708 2.292 30.708 3.792Q30.708 5.25 29.667 6.292Q28.625 7.333 27.125 7.333ZM18.875 14.5Q17.417 14.5 16.396 13.458Q15.375 12.417 15.375 10.917Q15.375 9.458 16.396 8.417Q17.417 7.375 18.875 7.375Q20.375 7.375 21.396 8.417Q22.417 9.458 22.417 10.917Q22.417 12.417 21.396 13.458Q20.375 14.5 18.875 14.5ZM2.542 38.292 -0.292 35.833 5.583 29.417 3.833 24.375Q3.458 23.333 3.708 22.312Q3.958 21.292 4.667 20.583L10 15Q10.5 14.5 11.146 14.229Q11.792 13.958 12.5 13.958Q13.167 13.958 13.833 14.229Q14.5 14.5 15 15L18.417 18.333Q20 19.792 21.208 20.208Q22.417 20.625 24 20.625V24.375Q21.792 24.375 19.75 23.646Q17.708 22.917 16.042 21.25L14.958 20.125L11.25 23.917L15.458 27.667V38.125H11.708V29.417L9.375 27.333V30.75ZM24.625 38.125V26.458L28.25 22.875L27.125 16.292Q26 17.792 25 18.479Q24 19.167 22.917 19.458Q21.75 19.208 20.792 18.708Q19.833 18.208 19.083 17.333Q21 16.917 22.479 16Q23.958 15.083 25.292 12.958L26.958 10.208Q27.792 8.958 29.167 8.625Q30.542 8.292 31.833 8.875L40.292 12.5V20.75H36.583V15L33.75 13.792L38.167 38.125H34.375L31.458 25.542L28.333 28.75V38.125Z"/></svg>
